!!!COM: Hugo Wolf
!!!CNT: Deutscher
!!!TXO: Deutsche 
!!!OTL: Erwartung
!!!ODT: 1880/01/26
!!!ONM: No. 18
!!!LYR: Joseph von Eichendorff
!!!ENC: Brian Bice
!!!YOR: 45 Songs on Poems of Goethe and Eichendorff, Dover Publications, 1995
!!NB: Vocal melody and text only encoded.
**kern	**silbe
*clefG2	*
*k[f#c#g#d#]	*
*M3/8	*
=1	=1
{8gg#	{Gru2ss
8ee	euch
8cc#	aus
=2	=2
8.b	Her-
16a	-zens-
8a	-grund:
=3	=3
8cc#	zwei
8ff#	Au-
8a	-gen
=4	=4
8.g#	hell
16cc#	und
8b}	rein,}
=5	=5
{8cc#	{zwei
8ee	Ro2s-
8g#	-lein
=6	=6
8.f#	auf
16a	dem
8cc#	Mund,
=7	=7
8d#	Kleid
8f#	blank
8d#	aus
=8	=8
8.cc#	Son-
16cc#	-nen-
8b}	-schein!}
=11	=11
{8a#	{Nach-
8b	-ti-
8cc#	-gall
=12	=12
8.cc#	klagt
16e	und
8ddn}	weint,}
=15	=15
{8e	{wol-
8e	-lu2-
8e	-stig
=16	=16
8.e	rauscht
16a	der
[8cc#	Hain,
=17	=17
4cc]}	|}
8r	.
=18	=18
8r	.
8r	.
{[8b#	{al-
=19	=19
8b#]	|
8cc#	-les
8dd#	die
=20	=20
8.ff#	Lieb-
16ff#	-ste
8ee}	meint:}
=23	=23
{8ee	{wo
8dd#	weilt
8cc#	sie
=24	=24
8.b#	so
16cc#	al-
[8dd#	-lein?
=25	=25
4.dd#_	|
=26	=26
8dd#]}	|}
8r	.
8r	.
=27	=27
{8gn	{Weil's
8gn	drau-
8gn	-ssen
=28	=28
8.ccn	fin-
16ccn	-ster
8ccn	war,
=29	=29
8b	sah
8b	ich
8b	viel
=30	=30
8.ccn	hel-
16ddn	-lern
8ee}	Schein,}
=31	=31
{8ee	{jetzt
8ee	ist
8ee	es
=32	=32
8.gg#	licht
16ee	und
8b	klar,
=33	=33
8ccn	ich
8b	muss
8a	im
=34	=34
8.cc#	Dun-
16cc#	-keln
8b}	sein.}
=37	=37
{8cc#	{Son-
8a#	-ne
8f#	nicht
=38	=38
8.e	stei-
16e	-gen
8dn}	mag,}
=41	=41
{8e	{sieht
8e	so
8dn	ver-
=42	=42
8.cn	-schla-
16e	-fen
8a}	drein,}
=45	=45
{8b	{wu2n-
8ccn	-schet
8ddn	den
=46	=46
8.ddn	gan-
16ffn	-zen
8ee-}	Tag,}
=49	=49
{8a	{dass
8gn	wie-
8fn	-der
=50	=50
8.ffn	Nacht
16ffn	mo2cht'
8ddn}	sein.}
=55	=55
{8gg#	{Lie-
8ee	-be
8cc#	geht
=56	=56
8b	durch
(16a	die
16cc#)	|
8ff#	Luft,
=57	=57
8f#	holt
8a	fern
8f#	die
=58	=58
8.g#	Lieb-
16cc#	-ste
8b	ein;
=59	=59
8ee}	fort}
16r	.
{16dd#	{u2-
8cc#	-ber
=60	=60
8.b#	Berg
16b#	und
8cc#	Kluft!
=61	=61
8a	und
8g#	sie
8f#	wird
=62	=62
8.f#;	doch
16dd#	noch
[8ee	mein!
=63	=63
4.ee]}	|}
*-	*-
